X: 82
T: Wo ai mao zhuxi
%%abc-version 2.0
%%abcx-abcm2ps-target-version 5.9.1 (29 Sep 2008)
%%abc-creator hum2abc beta
%%abcx-conversion-date 2013/10/02 07:44:27
%%abc-edited-by Helmut Schaffrath
%%humdrum-veritas 3105459545
%%humdrum-veritas-data 3350402500
%%continueall 1
%%barnumbers 0
L: 1/16
M: 2/4
K: C
A2c6 [I:setbarnb 1]| 
d2 e2 d c A2 | 
A2 c2 A2 A2 | 
d2 e cd4 | 
c d e cd4 | 
d c A d c A3 | 
c2 A G2< A2 z | 
d2 e2 d2 c A | 
A2 c AA4 | 
d2 e2 d2 c A | 
A2 c A A2 z2 | 
A2c6 | 
d c A G A2 z2 | 
d2 e2 d2 c A | 
d2 e cd4 | 
c d e cd4 | 
d c A d c A3 | 
c2 A G A2 z2 | 
d2 e2 d2 c A | 
A2 c AA4 | 
d2 e2 d2 c A | 
A2 c AA4 |]  



